X:97
T:The wee wedding
Z:Jack Campin - http://www.campin.me.uk
S:Blaikie MS (NLS MS.1578) p29, Blaikie #91
M:2/4
L:1/8
V:1 midi program 1 74
V:2 midi program 1 46 bass middle = d transpose -24
Q:1/4=90
N:Blaikie writes an explicit accidental for the B flats in the bass
K:C Mixolydian
[V:1] G|cG`GF|{F}E2 zC|DB`BD|F2 zD|CC`DF|E2 zG|ce`fd|c2 z|]
[V:2] z|c2 c2|   c2 c2|B2 B2|A2 z2|c2 G2|c2 z2|c2 G2|c2 z|]
W:Transcription (c) Jack Campin 2009, no mirroring or republication without permission

